packages/icons/src/apply-schema.svg

<svg viewBox="0 0 30 38" fill="none" xmlns="http://www.w3.org/2000/svg">
<path fill-rule="evenodd" clip-rule="evenodd" d="M1.5 8C1.5 4.41015 4.41015 1.5 8 1.5C11.5899 1.5 14.5 4.41015 14.5 8C14.5 11.5899 11.5899 14.5 8 14.5C4.41015 14.5 1.5 11.5899 1.5 8ZM8 1C4.13401 1 1 4.13401 1 8C1 11.866 4.13401 15 8 15C11.866 15 15 11.866 15 8C15 4.13401 11.866 1 8 1ZM8.17426 3.88572C8.07663 3.78809 7.91834 3.78809 7.82071 3.88572L6.22972 5.47671C6.13209 5.57435 6.13209 5.73264 6.22972 5.83027C6.32735 5.9279 6.48564 5.9279 6.58327 5.83027L7.74748 4.66605V11.9375C7.74748 12.0756 7.85941 12.1875 7.99748 12.1875C8.13556 12.1875 8.24749 12.0756 8.24749 11.9375V4.66605L9.4117 5.83027C9.50933 5.9279 9.66762 5.9279 9.76525 5.83027C9.86288 5.73264 9.86288 5.57435 9.76525 5.47671L8.17426 3.88572Z" fill="currentColor" stroke="currentColor" stroke-width="0.7"/>
<path fill-rule="evenodd" clip-rule="evenodd" d="M14.5789 18.4211C14.5789 17.7427 15.1453 16.9586 16.4496 16.3064C17.7162 15.6731 19.5102 15.2632 21.5263 15.2632C23.5424 15.2632 25.3364 15.6731 26.603 16.3064C27.9074 16.9586 28.4737 17.7427 28.4737 18.4211C28.4737 19.0994 27.9074 19.8835 26.603 20.5357C25.3364 21.169 23.5424 21.5789 21.5263 21.5789C19.5102 21.5789 17.7162 21.169 16.4496 20.5357C15.1453 19.8835 14.5789 19.0994 14.5789 18.4211ZM27.1679 21.6655C27.6476 21.4257 28.093 21.1423 28.4737 20.8187V23.4737C28.4737 24.152 27.9074 24.9362 26.603 25.5883C25.3364 26.2216 23.5424 26.6316 21.5263 26.6316C19.5102 26.6316 17.7162 26.2216 16.4496 25.5883C15.1453 24.9362 14.5789 24.152 14.5789 23.4737V20.8187C14.9596 21.1423 15.405 21.4257 15.8847 21.6655C17.3612 22.4037 19.3567 22.8421 21.5263 22.8421C23.696 22.8421 25.6915 22.4037 27.1679 21.6655ZM27.1679 26.7181C27.6476 26.4783 28.093 26.1949 28.4737 25.8713V28.5263C28.4737 29.2046 27.9074 29.9888 26.603 30.641C25.3364 31.2743 23.5424 31.6842 21.5263 31.6842C19.5102 31.6842 17.7162 31.2743 16.4496 30.641C15.1453 29.9888 14.5789 29.2046 14.5789 28.5263V25.8713C14.9596 26.1949 15.405 26.4783 15.8847 26.7181C17.3612 27.4564 19.3567 27.8947 21.5263 27.8947C23.696 27.8947 25.6915 27.4564 27.1679 26.7181ZM27.1679 31.7708C27.6476 31.5309 28.093 31.2476 28.4737 30.924V33.5789C28.4737 34.2573 27.9074 35.0414 26.603 35.6936C25.3364 36.3269 23.5424 36.7368 21.5263 36.7368C19.5102 36.7368 17.7162 36.3269 16.4496 35.6936C15.1453 35.0414 14.5789 34.2573 14.5789 33.5789V30.924C14.9596 31.2476 15.405 31.5309 15.8847 31.7708C17.3612 32.509 19.3567 32.9474 21.5263 32.9474C23.696 32.9474 25.6915 32.509 27.1679 31.7708ZM27.1679 36.8234C28.6066 36.1041 29.7368 34.9935 29.7368 33.5789V18.4211C29.7368 17.0065 28.6066 15.8959 27.1679 15.1766C25.6915 14.4384 23.696 14 21.5263 14C19.3567 14 17.3612 14.4384 15.8847 15.1766C15.1215 15.5582 14.4451 16.0499 13.9782 16.6387L13.9835 16.5453C13.7641 16.5328 13.5413 16.5263 13.3158 16.5263C11.6661 16.5263 10.1412 16.8717 9.00572 17.4605C7.90174 18.0329 7 18.9353 7 20.1053V31.8947C7 33.0647 7.90174 33.9671 9.00572 34.5395C10.1412 35.1283 11.6661 35.4737 13.3158 35.4737C13.5413 35.4737 13.7641 35.4672 13.9835 35.4547L13.9782 35.3613C14.4451 35.9501 15.1215 36.4418 15.8847 36.8234C17.3612 37.5616 19.3567 38 21.5263 38C23.696 38 25.6915 37.5616 27.1679 36.8234ZM13.3931 34.2102C13.3426 34.0072 13.3158 33.7967 13.3158 33.5789V31.5439C11.6661 31.5439 10.1412 31.1985 9.00572 30.6097C8.74369 30.4738 8.49305 30.3194 8.26316 30.1472V31.8947C8.26316 32.3526 8.63387 32.9239 9.58717 33.4182C10.5089 33.8961 11.8262 34.2105 13.3158 34.2105C13.3416 34.2105 13.3674 34.2104 13.3931 34.2102ZM13.3158 30.2807V27.614C11.6661 27.614 10.1412 27.2687 9.00572 26.6799C8.74369 26.544 8.49305 26.3896 8.26316 26.2173V27.9649C8.26316 28.4227 8.63387 28.994 9.58717 29.4883C10.5089 29.9663 11.8262 30.2807 13.3158 30.2807ZM13.3158 26.3509V23.6842C11.6661 23.6842 10.1412 23.3388 9.00572 22.7501C8.74369 22.6142 8.49305 22.4597 8.26316 22.2875V24.0351C8.26316 24.4929 8.63387 25.0642 9.58717 25.5585C10.5089 26.0364 11.8262 26.3509 13.3158 26.3509ZM13.3158 22.4211V18.4211C13.3158 18.2033 13.3426 17.9928 13.3931 17.7898C13.3674 17.7896 13.3416 17.7895 13.3158 17.7895C11.8262 17.7895 10.5089 18.1039 9.58717 18.5818C8.63387 19.0761 8.26316 19.6474 8.26316 20.1053C8.26316 20.5631 8.63387 21.1344 9.58717 21.6287C10.5089 22.1066 11.8262 22.4211 13.3158 22.4211Z" fill="currentColor"/>
</svg>

<svg xmlns="http://www.w3.org/2000/svg" viewbox="0 0 30 38" fill="none"><path fill="currentColor" fill-rule="evenodd" stroke="#0278D5" stroke-width=".7" d="M1.5 8a6.5 6.5 0 1 1 13 0 6.5 6.5 0 0 1-13 0ZM8 1a7 7 0 1 0 0 14A7 7 0 0 0 8 1Zm.174 2.886a.25.25 0 0 0-.353 0L6.23 5.476a.25.25 0 0 0 .353.354l1.164-1.164v7.271a.25.25 0 1 0 .5 0v-7.27L9.412 5.83a.25.25 0 1 0 .353-.353l-1.59-1.591Z" clip-rule="evenodd"/><path fill="#0278D5" fill-rule="evenodd" d="M14.579 18.421c0-.678.566-1.462 1.87-2.115 1.267-.633 3.061-1.043 5.077-1.043s3.81.41 5.077 1.043c1.304.653 1.87 1.437 1.87 2.115 0 .678-.566 1.463-1.87 2.115-1.267.633-3.06 1.043-5.077 1.043-2.016 0-3.81-.41-5.076-1.043-1.305-.652-1.871-1.437-1.871-2.115Zm12.589 3.245c.48-.24.925-.524 1.306-.847v2.655c0 .678-.567 1.462-1.871 2.114-1.267.634-3.06 1.044-5.077 1.044-2.016 0-3.81-.41-5.076-1.044-1.305-.652-1.871-1.436-1.871-2.114v-2.655c.38.323.826.607 1.306.847 1.476.738 3.472 1.176 5.641 1.176 2.17 0 4.166-.438 5.642-1.176Zm0 5.052c.48-.24.925-.523 1.306-.847v2.655c0 .679-.567 1.463-1.871 2.115-1.267.633-3.06 1.043-5.077 1.043-2.016 0-3.81-.41-5.076-1.043-1.305-.652-1.871-1.436-1.871-2.115v-2.655c.38.324.826.607 1.306.847 1.476.738 3.472 1.177 5.641 1.177 2.17 0 4.166-.439 5.642-1.177Zm0 5.053c.48-.24.925-.523 1.306-.847v2.655c0 .678-.567 1.462-1.871 2.115-1.267.633-3.06 1.043-5.077 1.043-2.016 0-3.81-.41-5.076-1.043-1.305-.653-1.871-1.437-1.871-2.115v-2.655c.38.324.826.607 1.306.847 1.476.738 3.472 1.176 5.641 1.176 2.17 0 4.166-.438 5.642-1.176Zm0 5.052c1.439-.719 2.569-1.83 2.569-3.244V18.42c0-1.415-1.13-2.525-2.57-3.244-1.476-.739-3.471-1.177-5.64-1.177-2.17 0-4.166.438-5.642 1.177-.764.381-1.44.873-1.907 1.462l.005-.094c-.219-.012-.442-.019-.667-.019-1.65 0-3.175.346-4.31.934C7.902 18.034 7 18.936 7 20.105v11.79c0 1.17.902 2.072 2.006 2.644 1.135.59 2.66.935 4.31.935.225 0 .448-.007.667-.02l-.005-.093c.467.59 1.143 1.08 1.907 1.462C17.36 37.562 19.357 38 21.526 38c2.17 0 4.166-.438 5.642-1.177ZM13.393 34.21a2.606 2.606 0 0 1-.077-.631v-2.035c-1.65 0-3.175-.346-4.31-.934a5.345 5.345 0 0 1-.743-.463v1.748c0 .458.37 1.029 1.324 1.523.922.478 2.24.793 3.729.793h.077Zm-.077-3.93v-2.666c-1.65 0-3.175-.345-4.31-.934a5.336 5.336 0 0 1-.743-.463v1.748c0 .458.37 1.029 1.324 1.523.922.478 2.24.793 3.729.793Zm0-3.93v-2.666c-1.65 0-3.175-.345-4.31-.934a5.346 5.346 0 0 1-.743-.462v1.747c0 .458.37 1.03 1.324 1.523.922.478 2.24.793 3.729.793Zm0-3.929v-4c0-.218.027-.428.077-.631h-.077c-1.49 0-2.807.314-3.729.792-.953.494-1.324 1.065-1.324 1.523 0 .458.37 1.03 1.324 1.524.922.478 2.24.792 3.729.792Z" clip-rule="evenodd"/></svg>
